X:472
T: Der Schuster und das Mdchen (180b), S.395f
N: T0360
O: Luxemburg
S: Singendes Volk, Esch-Alzette, 1937 posth.]
N: Heffingen, fff Anna Kimmel, 12.4.1933
N: (181)- Straen, hhh Nikolaus Lersch, um 1850, ohne Melodie;
N: (182)- Straen, fff Witry, 13.12.1932, ohne Melodie
R: Tage-, Wchter-, Fenstergang-, Stndchenlieder, Liebeslied]
M: 6/8
L: 1/16
K: G
D2 | G4A2B4D2 | G4A2B4
D2 | G4A2B4G2 | A6z4
DD | G2G2G2A4B2 | G6D4
D2 | D2G2G2A4c2 | B6A4
c2 | B4G2A4A2 | G6z4

@@@ Tune index: 8526
